gtk/icons/gesture-rotate-anticlockwise-symbolic.svg

<?xml version="1.0" encoding="UTF-8" standalone="no"?>
<svg width="64" height="64">
  <path
     d="M30.979 13.31a4 4 0 0 0-3.93 4.067l.053 22.877c0 .643-.673.88-.91.373l-7.45-15.822a4 4 0 0 0-3.465-2.344c-3.031-.135-5.103 3.022-3.773 5.75l8.004 16.998c-.774.824-1.942 1.03-3.832.1l-2.961-5.13c-1.16-2.007-3.627-2.738-5.533-1.638l-.383.22c-1.906 1.101-2.507 3.604-1.348 5.612l6.397 11.08c.146.253.312.484.496.695l1.6 3.55c.662 1.43 1.502 2.302 3.535 2.302h30.828c2.6 0 4.693-2.133 4.693-4.783V39c0-2.216-1.784-4-4-4a3.981 3.981 0 0 0-3.861 3H44v-2c0-2.216-1.682-4-3.771-4h-.458C37.682 32 36 33.784 36 36v2h-.9l-.051-20.643a4 4 0 0 0-4.07-4.046z"/>
  <path
     d="m 21.349627,20.375154 c 3.495882,3.508107 3.485892,9.232098 -0.02222,12.727981 -3.508107,3.495882 -9.232098,3.485892 -12.7279806,-0.02222 -3.4958825,-3.508107 -3.4858922,-9.232098 0.022215,-12.72798 3.5081066,-3.495883 9.2320976,-3.485893 12.7279806,0.02221 z m -2.124701,2.118295 a 5.977,5.977 0 0 0 -8.485987,-0.01481 5.977,5.977 0 0 0 -0.01481,8.484987 5.977,5.977 0 0 0 8.485987,0.01481 5.977,5.977 0 0 0 0.01481,-8.484987 z M 37.357569,10.682078 c 3.496882,3.508109 3.486892,9.2321 -0.02221,12.727981 -3.508107,3.495883 -9.231098,3.485894 -12.727981,-0.02221 -3.495882,-3.508107 -3.485892,-9.232099 0.02221,-12.727981 3.509107,-3.4958808 9.232098,-3.4858923 12.727981,0.02221 z m -2.124699,2.117295 a 5.977,5.977 0 0 0 -8.484987,-0.01481 5.978,5.978 0 0 0 -0.01481,8.485987 5.977,5.977 0 0 0 8.484987,0.01481 5.977,5.977 0 0 0 0.01481,-8.485987 z"/>
  <path
     d="M 44.973973,3.8130425 40.242185,8.5223082 45.18702,13.006685 Z"/>
  <path
     d="m 43.074673,8.4033566 a 11.002,11.002 0 0 1 8.757784,2.5985304 11.002,11.002 0 0 1 3.776989,8.31554"/>
</svg>

<svg
        xmlns='http://www.w3.org/2000/svg'
        xmlns:svg='http://www.w3.org/2000/svg'
        width='64'
        height='64'>
  <path
          clip-path='none'
          fill='url(#gpa:foreground) rgb(0,0,0)'
          fill-opacity='1'
          fill-rule='nonzero'
          d='M 30.979 13.31 C 28.7709 13.3483, 27.0117 15.1689, 27.049 17.377 L 27.102 40.254 C 27.102 40.897, 26.429 41.134, 26.192 40.627 L 18.742 24.805 C 18.1202 23.4338, 16.7811 22.528, 15.277 22.461 C 12.246 22.326, 10.174 25.483, 11.504 28.211 L 19.508 45.209 C 18.734 46.033, 17.566 46.239, 15.676 45.309 L 12.715 40.179 C 11.555 38.172, 9.088 37.441, 7.182 38.541 L 6.799 38.761 C 4.893 39.862, 4.292 42.365, 5.451 44.373 L 11.848 55.453 C 11.994 55.706, 12.16 55.937, 12.344 56.148 L 13.944 59.698 C 14.606 61.128, 15.446 62, 17.479 62 L 48.307 62 C 50.907 62, 53 59.867, 53 57.217 L 53 39 C 53 36.784, 51.216 35, 49 35 C 47.1782 34.9987, 45.5879 36.2343, 45.139 38 L 44 38 L 44 36 C 44 33.784, 42.318 32, 40.229 32 L 39.771 32 C 37.682 32, 36 33.784, 36 36 L 36 38 L 35.1 38 L 35.049 17.357 C 35.0616 16.2759, 34.6361 15.2358, 33.8693 14.4736 C 33.1026 13.7114, 32.06 13.292, 30.979 13.311 Z'
          class='foreground foreground-fill'>
  </path>
  <path
          clip-path='none'
          fill='url(#gpa:foreground) rgb(0,0,0)'
          fill-opacity='1'
          fill-rule='nonzero'
          d='M 21.3496 20.3752 C 24.8455 23.8833, 24.8355 29.6073, 21.3274 33.1031 C 17.8193 36.599, 12.0953 36.589, 8.59943 33.0809 C 5.10354 29.5728, 5.11353 23.8488, 8.62164 20.3529 C 12.1297 16.8571, 17.8537 16.867, 21.3496 20.3751 Z M 19.2249 22.4934 C 18.1047 21.3604, 16.5784 20.7215, 14.985 20.7187 C 13.3917 20.716, 11.8631 21.3495, 10.7389 22.4786 C 9.60618 23.5989, 8.96751 25.1249, 8.96473 26.7181 C 8.96195 28.3112, 9.59529 29.8395, 10.7241 30.9636 C 11.8444 32.0967, 13.3707 32.7356, 14.964 32.7383 C 16.5574 32.7411, 18.0859 32.1076, 19.2101 30.9784 C 20.3429 29.8582, 20.9815 28.3321, 20.9843 26.739 C 20.9871 25.1459, 20.3538 23.6176, 19.2249 22.4934 Z M 37.3576 10.6821 C 40.8545 14.1902, 40.8445 19.9142, 37.3354 23.4101 C 33.8273 26.9059, 28.1043 26.896, 24.6074 23.3878 C 21.1115 19.8797, 21.1215 14.1558, 24.6296 10.6599 C 28.1387 7.16399, 33.8617 7.17398, 37.3576 10.6821 Z M 35.2329 12.7994 C 34.1127 11.6666, 32.5866 11.0279, 30.9935 11.0252 C 29.4003 11.0224, 27.872 11.6557, 26.7479 12.7846 C 25.6151 13.9049, 24.9764 15.4312, 24.9736 17.0245 C 24.9708 18.6178, 25.6042 20.1462, 26.7331 21.2705 C 27.8533 22.4033, 29.3794 23.042, 30.9725 23.0448 C 32.5656 23.0475, 34.0939 22.4142, 35.2181 21.2854 C 36.3511 20.1651, 36.99 18.6388, 36.9928 17.0455 C 36.9956 15.4521, 36.362 13.9236, 35.2329 12.7994 Z'
          class='foreground foreground-fill'>
  </path>
  <path
          clip-path='none'
          fill='url(#gpa:foreground) rgb(0,0,0)'
          fill-opacity='1'
          fill-rule='nonzero'
          d='M 44.974 3.81304 L 40.2422 8.52231 L 45.187 13.0067 Z'
          class='foreground foreground-fill'>
  </path>
  <path
          clip-path='none'
          fill='url(#gpa:foreground) rgb(0,0,0)'
          fill-opacity='1'
          fill-rule='nonzero'
          d='M 43.0747 8.40336 C 46.2326 7.95937, 49.4277 8.90741, 51.8325 11.0019 C 54.2368 13.0956, 55.6148 16.1293, 55.6094 19.3174'
          class='foreground foreground-fill'>
  </path>
</svg>
